scalable/apps/defcon.svg

<?xml version="1.0" encoding="UTF-8" standalone="no"?>
<!-- Created with Inkscape (http://www.inkscape.org/) -->
<svg id="svg2" xmlns:rdf="http://www.w3.org/1999/02/22-rdf-syntax-ns#" xmlns="http://www.w3.org/2000/svg" height="100%" viewBox="0 0 512 512" width="100%" version="1.1" xmlns:cc="http://creativecommons.org/ns#" xmlns:dc="http://purl.org/dc/elements/1.1/">
 <metadata id="metadata94">
  <rdf:RDF>
   <cc:Work rdf:about="">
    <dc:format>image/svg+xml</dc:format>
    <dc:type rdf:resource="http://purl.org/dc/dcmitype/StillImage"/>
   </cc:Work>
  </rdf:RDF>
 </metadata>
 <path id="path16" d="m471.95 253.05c0 120.9-98.01 218.91-218.91 218.91s-218.91-98.01-218.91-218.91 98.01-218.91 218.91-218.91 218.91 98.01 218.91 218.91" fill-rule="evenodd" fill="#e49e0e"/>
 <path id="path18" opacity=".25" d="m252.22 89.25c-79.6 0.401-152.45 65.36-161.34 144.66-8.421 56.46 16.06 114.13 58.56 151.22 28.808 28.585 57.42 57.37 86.06 86.13 5.784 0.458 11.629 0.719 17.531 0.719 120.9 0 218.91-98.01 218.91-218.91 0-5.869-0.234-11.685-0.688-17.438-36.16-36.37-72.2-72.895-109.28-108.28-29.501-24.474-67.64-38.17-105.97-38.06-1.267-0.026-2.518-0.038-3.781-0.031"/>
 <g id="g20" fill-rule="evenodd">
  <path id="path22" fill-opacity=".067" d="m256 1c-140.83 0-255 114.17-255 255s114.17 255 255 255 255-114.17 255-255-114.17-255-255-255m8.827 44.931c120.9 0 218.9 98 218.9 218.9s-98 218.9-218.9 218.9-218.93-98-218.93-218.9 98.03-218.9 218.93-218.9"/>
  <g id="g24" fill-opacity=".129">
   <path id="path26" d="m256 4.43c-138.94 0-251.57 112.63-251.57 251.57s112.63 251.57 251.57 251.57 251.57-112.63 251.57-251.57-112.63-251.57-251.57-251.57m5.885 38.556c120.9 0 218.9 98 218.9 218.9s-98 218.9-218.9 218.9-218.93-98-218.93-218.9 98.03-218.9 218.93-218.9"/>
   <path id="path28" d="m256 8.36c-136.77 0-247.64 110.87-247.64 247.64s110.87 247.64 247.64 247.64 247.64-110.87 247.64-247.64-110.87-247.64-247.64-247.64m2.942 31.691c120.9 0 218.9 98 218.9 218.9s-98 218.9-218.9 218.9-218.93-98-218.93-218.9 98.03-218.9 218.93-218.9"/>
  </g>
  <path id="path30" d="m253.04 7.86c-135.42 0-245.19 109.78-245.19 245.19 0 135.42 109.78 245.19 245.19 245.19 135.42 0 245.19-109.78 245.19-245.19 0-135.42-109.78-245.19-245.19-245.19zm0 26.297c120.9 0 218.9 98 218.9 218.9s-98 218.9-218.9 218.9-218.93-98-218.93-218.9 98.03-218.9 218.93-218.9z" stroke-opacity=".31" stroke="#000" stroke-width="4.904" fill="#fff"/>
 </g>
 <text id="text32" style="word-spacing:0;letter-spacing:0" font-size="129.23px" line-height="125%" y="231.36" x="729.64001" font-family="Gentium Book Basic">
  <tspan id="tspan34" y="231.36" x="729.64001"/>
 </text>
 <text id="text36" style="text-anchor:middle" font-size="46.954px" transform="scale(4.0128 .2492)" y="579.26001" x="378.91" font-family="Arial"/>
 <text id="text38" style="word-spacing:0;letter-spacing:0" font-size="129.23px" line-height="125%" y="151.36" x="1310.91" font-family="Gentium Book Basic">
  <tspan id="tspan40" y="151.36" x="1310.91"/>
 </text>
 <text id="text42" style="text-anchor:middle" font-size="46.954px" transform="scale(4.0128 .2492)" y="258.22" x="523.76001" font-family="Arial"/>
 <text id="text44" style="word-spacing:0;letter-spacing:0" font-size="129.23px" line-height="125%" y="-29.9" x="239.33" font-family="Gentium Book Basic">
  <tspan id="tspan46" y="-29.9" x="239.33"/>
 </text>
 <text id="text48" style="text-anchor:middle" font-size="46.954px" transform="scale(4.0128 .2492)" y="-469.13" x="256.72" font-family="Arial"/>
 <text id="text50" style="word-spacing:0;letter-spacing:0" font-size="129.23px" line-height="125%" y="-246.37" x="1337.38" font-family="Gentium Book Basic">
  <tspan id="tspan52" y="-246.37" x="1337.38"/>
 </text>
 <text id="text54" style="text-anchor:middle" font-size="46.954px" transform="scale(4.0128 .2492)" y="-1337.8" x="530.35999" font-family="Arial"/>
 <text id="text56" style="word-spacing:0;letter-spacing:0" font-size="129.23px" line-height="125%" y="-326.37" x="1918.65" font-family="Gentium Book Basic">
  <tspan id="tspan58" y="-326.37" x="1918.65"/>
 </text>
 <text id="text60" style="text-anchor:middle" font-size="46.954px" transform="scale(4.0128 .2492)" y="-1658.83" x="675.21002" font-family="Arial"/>
 <text id="text62" style="word-spacing:0;letter-spacing:0" font-size="129.23px" line-height="125%" y="-798.77002" x="1529.53" font-family="Gentium Book Basic">
  <tspan id="tspan64" y="-798.77002" x="1529.53"/>
 </text>
 <text id="text66" style="text-anchor:middle" font-size="46.954px" transform="scale(4.0128 .2492)" y="-3554.48" x="578.23999" font-family="Arial"/>
 <text id="text68" style="word-spacing:0;letter-spacing:0" font-size="129.23px" line-height="125%" y="-878.78003" x="2110.79" font-family="Gentium Book Basic">
  <tspan id="tspan70" y="-878.78003" x="2110.79"/>
 </text>
 <text id="text72" style="text-anchor:middle" font-size="46.954px" transform="scale(4.0128 .2492)" y="-3875.52" x="723.09003" font-family="Arial"/>
 <text id="text74" style="word-spacing:0;letter-spacing:0" font-size="208.33px" line-height="125%" y="535.94" x="277.98999" font-family="Gentium Book Basic">
  <tspan id="tspan76" y="535.94" x="277.98999"/>
 </text>
 <g id="g78" style="color:#000000">
  <g id="g80" fill="#cd1d31">
   <path id="path82" d="m325.4 135.11-48.603 84.05c-12.877-7.395-29.18-8.03-42.969-0.07l-48.47-83.944c43.31-25 96.73-25.04 140.04-0.033"/>
   <path id="path84" d="m395.39 256.34c0 50.01-26.74 96.26-70.05 121.26l-48.45-83.91c13.786-7.959 21.39-22.397 21.424-37.25l97.07-0.102"/>
   <path id="path86" d="m278.65 242.92c7.433 12.874 3.048 29.349-9.827 36.782-12.874 7.433-29.368 3.01-36.802-9.861-7.433-12.874-2.994-29.334 9.881-36.767 12.874-7.433 29.31-3.03 36.747 9.846"/>
   <path id="path88" d="m212.41 256.34c-0.017 7.338 1.699 14.767 5.633 21.58 3.933 6.813 9.528 12.05 15.892 15.702l-48.657 84.03c-43.31-25-69.99-71.22-69.99-121.23l97.12-0.088"/>
  </g>
  <path id="path90" fill="#fff" d="m402.25 177.2a166.89 166.89 0 0 0 -230.34 -65.35 166.89 166.89 0 0 0 166.89 289.05 166.89 166.89 0 0 0 63.45 -223.7m-76.847-42.08-48.603 84.05c-12.877-7.395-29.18-8.03-42.969-0.07l-48.47-83.944c43.31-25 96.73-25.04 140.04-0.033m69.99 121.23c0 50.01-26.74 96.26-70.05 121.26l-48.45-83.91c13.786-7.959 21.39-22.397 21.424-37.25l97.07-0.102m-116.73-13.44c7.433 12.874 3.048 29.349-9.827 36.782-12.874 7.433-29.368 3.01-36.802-9.861-7.433-12.874-2.994-29.334 9.881-36.767 12.874-7.433 29.31-3.03 36.747 9.846m-66.25 13.415c-0.017 7.338 1.699 14.767 5.633 21.58 3.933 6.813 9.528 12.05 15.892 15.702l-48.657 84.03c-43.29-25-69.98-71.22-69.98-121.22l97.12-0.088"/>
 </g>
</svg>

<?xml version="1.0" encoding="UTF-8" standalone="no"?>
<!-- Created with Inkscape (http://www.inkscape.org/) -->

<svg
   xmlns:dc="http://purl.org/dc/elements/1.1/"
   xmlns:cc="http://creativecommons.org/ns#"
   xmlns:rdf="http://www.w3.org/1999/02/22-rdf-syntax-ns#"
   xmlns:svg="http://www.w3.org/2000/svg"
   xmlns="http://www.w3.org/2000/svg"
   xmlns:inkscape="http://www.inkscape.org/namespaces/inkscape"
   version="1.1"
   width="100%"
   height="100%"
   viewBox="0 0 512 512"
   id="svg2">
  <metadata
     id="metadata94">
    <rdf:RDF>
      <cc:Work
         rdf:about="">
        <dc:format>image/svg+xml</dc:format>
        <dc:type
           rdf:resource="http://purl.org/dc/dcmitype/StillImage" />
      </cc:Work>
    </rdf:RDF>
  </metadata>
  <defs
     id="defs4" />
  <path
     d="m 471.95,253.05 c 0,120.9 -98.01,218.91 -218.91,218.91 -120.9,0 -218.91,-98.01 -218.91,-218.91 0,-120.9 98.01,-218.91 218.91,-218.91 120.9,0 218.91,98.01 218.91,218.91"
     inkscape:connector-curvature="0"
     id="path16"
     style="fill:#e49e0e;fill-rule:evenodd" />
  <path
     d="m 252.22,89.25 c -79.6,0.401 -152.45,65.36 -161.34,144.66 -8.421,56.46 16.06,114.13 58.56,151.22 28.808,28.585 57.42,57.37 86.06,86.13 5.784,0.458 11.629,0.719 17.531,0.719 120.9,0 218.91,-98.01 218.91,-218.91 0,-5.869 -0.234,-11.685 -0.688,-17.438 -36.16,-36.37 -72.2,-72.895 -109.28,-108.28 -29.501,-24.474 -67.64,-38.17 -105.97,-38.06 -1.267,-0.026 -2.518,-0.038 -3.781,-0.031"
     inkscape:connector-curvature="0"
     id="path18"
     style="opacity:0.25" />
  <g
     id="g20"
     style="fill-rule:evenodd">
    <path
       d="M 256,1 C 115.17,1 1,115.17 1,256 1,396.83 115.17,511 256,511 396.83,511 511,396.83 511,256 511,115.17 396.83,1 256,1 m 8.827,44.931 c 120.9,0 218.9,98 218.9,218.9 0,120.9 -98,218.9 -218.9,218.9 -120.9,0 -218.93,-98 -218.93,-218.9 0,-120.9 98.03,-218.9 218.93,-218.9"
       inkscape:connector-curvature="0"
       id="path22"
       style="fill-opacity:0.06700003" />
    <g
       id="g24"
       style="fill-opacity:0.12900002">
      <path
         d="M 256,4.43 C 117.06,4.43 4.43,117.06 4.43,256 4.43,394.94 117.06,507.57 256,507.57 394.94,507.57 507.57,394.94 507.57,256 507.57,117.06 394.94,4.43 256,4.43 m 5.885,38.556 c 120.9,0 218.9,98 218.9,218.9 0,120.9 -98,218.9 -218.9,218.9 -120.9,0 -218.93,-98 -218.93,-218.9 0,-120.9 98.03,-218.9 218.93,-218.9"
         inkscape:connector-curvature="0"
         id="path26" />
      <path
         d="M 256,8.36 C 119.23,8.36 8.36,119.23 8.36,256 8.36,392.77 119.23,503.64 256,503.64 392.77,503.64 503.64,392.77 503.64,256 503.64,119.23 392.77,8.36 256,8.36 m 2.942,31.691 c 120.9,0 218.9,98 218.9,218.9 0,120.9 -98,218.9 -218.9,218.9 -120.9,0 -218.93,-98 -218.93,-218.9 0,-120.9 98.03,-218.9 218.93,-218.9"
         inkscape:connector-curvature="0"
         id="path28" />
    </g>
    <path
       d="M 253.04,7.86 C 117.62,7.86 7.85,117.64 7.85,253.05 c 0,135.42 109.78,245.19 245.19,245.19 135.42,0 245.19,-109.78 245.19,-245.19 C 498.23,117.63 388.45,7.86 253.04,7.86 z m 0,26.297 c 120.9,0 218.9,98 218.9,218.9 0,120.9 -98,218.9 -218.9,218.9 -120.9,0 -218.93,-98 -218.93,-218.9 0,-120.9 98.03,-218.9 218.93,-218.9 z"
       inkscape:connector-curvature="0"
       id="path30"
       style="fill:#ffffff;stroke:#000000;stroke-width:4.90399981;stroke-opacity:0.31000001" />
  </g>
  <text
     x="729.64001"
     y="231.36"
     id="text32"
     style="font-size:129.22999573px;line-height:125%;letter-spacing:0;word-spacing:0;font-family:Gentium Book Basic">
    <tspan
       x="729.64001"
       y="231.36"
       id="tspan34" />
  </text>
  <text
     x="378.91"
     y="579.26001"
     transform="scale(4.0128,0.2492)"
     id="text36"
     style="font-size:46.95399857px;text-anchor:middle;font-family:Arial" />
  <text
     x="1310.91"
     y="151.36"
     id="text38"
     style="font-size:129.22999573px;line-height:125%;letter-spacing:0;word-spacing:0;font-family:Gentium Book Basic">
    <tspan
       x="1310.91"
       y="151.36"
       id="tspan40" />
  </text>
  <text
     x="523.76001"
     y="258.22"
     transform="scale(4.0128,0.2492)"
     id="text42"
     style="font-size:46.95399857px;text-anchor:middle;font-family:Arial" />
  <text
     x="239.33"
     y="-29.9"
     id="text44"
     style="font-size:129.22999573px;line-height:125%;letter-spacing:0;word-spacing:0;font-family:Gentium Book Basic">
    <tspan
       x="239.33"
       y="-29.9"
       id="tspan46" />
  </text>
  <text
     x="256.72"
     y="-469.13"
     transform="scale(4.0128,0.2492)"
     id="text48"
     style="font-size:46.95399857px;text-anchor:middle;font-family:Arial" />
  <text
     x="1337.38"
     y="-246.37"
     id="text50"
     style="font-size:129.22999573px;line-height:125%;letter-spacing:0;word-spacing:0;font-family:Gentium Book Basic">
    <tspan
       x="1337.38"
       y="-246.37"
       id="tspan52" />
  </text>
  <text
     x="530.35999"
     y="-1337.8"
     transform="scale(4.0128,0.2492)"
     id="text54"
     style="font-size:46.95399857px;text-anchor:middle;font-family:Arial" />
  <text
     x="1918.65"
     y="-326.37"
     id="text56"
     style="font-size:129.22999573px;line-height:125%;letter-spacing:0;word-spacing:0;font-family:Gentium Book Basic">
    <tspan
       x="1918.65"
       y="-326.37"
       id="tspan58" />
  </text>
  <text
     x="675.21002"
     y="-1658.83"
     transform="scale(4.0128,0.2492)"
     id="text60"
     style="font-size:46.95399857px;text-anchor:middle;font-family:Arial" />
  <text
     x="1529.53"
     y="-798.77002"
     id="text62"
     style="font-size:129.22999573px;line-height:125%;letter-spacing:0;word-spacing:0;font-family:Gentium Book Basic">
    <tspan
       x="1529.53"
       y="-798.77002"
       id="tspan64" />
  </text>
  <text
     x="578.23999"
     y="-3554.48"
     transform="scale(4.0128,0.2492)"
     id="text66"
     style="font-size:46.95399857px;text-anchor:middle;font-family:Arial" />
  <text
     x="2110.79"
     y="-878.78003"
     id="text68"
     style="font-size:129.22999573px;line-height:125%;letter-spacing:0;word-spacing:0;font-family:Gentium Book Basic">
    <tspan
       x="2110.79"
       y="-878.78003"
       id="tspan70" />
  </text>
  <text
     x="723.09003"
     y="-3875.52"
     transform="scale(4.0128,0.2492)"
     id="text72"
     style="font-size:46.95399857px;text-anchor:middle;font-family:Arial" />
  <text
     x="277.98999"
     y="535.94"
     id="text74"
     style="font-size:208.33000183px;line-height:125%;letter-spacing:0;word-spacing:0;font-family:Gentium Book Basic">
    <tspan
       x="277.98999"
       y="535.94"
       id="tspan76" />
  </text>
  <g
     id="g78"
     style="color:#000000">
    <g
       id="g80"
       style="fill:#cd1d31">
      <path
         d="m 325.4,135.11 -48.603,84.05 c -12.877,-7.395 -29.18,-8.03 -42.969,-0.07 l -48.47,-83.944 c 43.31,-25 96.73,-25.04 140.04,-0.033"
         inkscape:connector-curvature="0"
         id="path82" />
      <path
         d="m 395.39,256.34 c 0,50.01 -26.74,96.26 -70.05,121.26 l -48.45,-83.91 c 13.786,-7.959 21.39,-22.397 21.424,-37.25 l 97.07,-0.102"
         inkscape:connector-curvature="0"
         id="path84" />
      <path
         d="m 278.65,242.92 c 7.433,12.874 3.048,29.349 -9.827,36.782 -12.874,7.433 -29.368,3.01 -36.802,-9.861 -7.433,-12.874 -2.994,-29.334 9.881,-36.767 12.874,-7.433 29.31,-3.03 36.747,9.846"
         inkscape:connector-curvature="0"
         id="path86" />
      <path
         d="m 212.41,256.34 c -0.017,7.338 1.699,14.767 5.633,21.58 3.933,6.813 9.528,12.05 15.892,15.702 l -48.657,84.03 c -43.31,-25 -69.99,-71.22 -69.99,-121.23 l 97.12,-0.088"
         inkscape:connector-curvature="0"
         id="path88" />
    </g>
    <path
       d="M 402.24906,177.19826 A 166.88777,166.88777 0 0 0 171.91404,111.84954 166.88777,166.88777 0 0 0 338.79501,400.89587 166.88777,166.88777 0 0 0 402.24906,177.19826 m -76.847,-42.08 -48.603,84.05 c -12.877,-7.395 -29.18,-8.03 -42.969,-0.07 l -48.47,-83.944 c 43.31,-25 96.73,-25.04 140.04,-0.033 m 69.99,121.23 c 0,50.01 -26.74,96.26 -70.05,121.26 l -48.45,-83.91 c 13.786,-7.959 21.39,-22.397 21.424,-37.25 l 97.07,-0.102 M 278.65,242.92 c 7.433,12.874 3.048,29.349 -9.827,36.782 -12.874,7.433 -29.368,3.01 -36.802,-9.861 -7.433,-12.874 -2.994,-29.334 9.881,-36.767 12.874,-7.433 29.31,-3.03 36.747,9.846 m -66.25,13.415 c -0.017,7.338 1.699,14.767 5.633,21.58 3.933,6.813 9.528,12.05 15.892,15.702 l -48.657,84.03 C 141.97,352.65 115.28,306.43 115.28,256.43 l 97.12,-0.088"
       inkscape:connector-curvature="0"
       id="path90"
       style="fill:#ffffff" />
  </g>
</svg>
